icons/money-rupee.svg

<svg width="24" height="24" viewBox="0 0 24 24" fill="none" xmlns="http://www.w3.org/2000/svg">
<path fill-rule="evenodd" clip-rule="evenodd" d="M5.00003 5C5.00003 4.44772 5.44774 4 6.00003 4H18C18.5523 4 19 4.44772 19 5C19 5.55228 18.5523 6 18 6H13.0001C13.4447 6.59279 13.7513 7.27631 13.899 8H18C18.5523 8 19 8.44772 19 9C19 9.55228 18.5523 10 18 10H13.899C13.7044 10.9534 13.2339 11.8372 12.5356 12.5355C11.5979 13.4732 10.3261 14 9.00003 14H8.41424L12.7071 18.2929C13.0977 18.6834 13.0977 19.3166 12.7071 19.7071C12.3166 20.0976 11.6834 20.0976 11.2929 19.7071L5.29292 13.7071C5.00692 13.4211 4.92137 12.991 5.07615 12.6173C5.23093 12.2436 5.59557 12 6.00003 12H9.00003C9.79568 12 10.5587 11.6839 11.1213 11.1213C11.4408 10.8019 11.6807 10.4179 11.8285 10H6.00003C5.44774 10 5.00003 9.55228 5.00003 9C5.00003 8.44772 5.44774 8 6.00003 8H11.8285C11.6807 7.5821 11.4408 7.19808 11.1213 6.87868C10.5587 6.31607 9.79568 6 9.00003 6H6.00003C5.44774 6 5.00003 5.55228 5.00003 5Z" fill="black"/>
</svg>

<svg
  width="24"
  height="24"
  viewBox="0 0 24 24"
  xmlns="http://www.w3.org/2000/svg"
>
  <path
    fill-rule="evenodd"
    clip-rule="evenodd"
    d="M5 5a1 1 0 0 1 1-1h12a1 1 0 1 1 0 2h-5a5 5 0 0 1 .899 2H18a1 1 0 1 1 0 2h-4.101A5 5 0 0 1 9 14h-.586l4.293 4.293a1 1 0 1 1-1.414 1.414l-6-6A1 1 0 0 1 6 12h3a3 3 0 0 0 2.829-2H6a1 1 0 1 1 0-2h5.829A3 3 0 0 0 9 6H6a1 1 0 0 1-1-1z"
  />
</svg>
